X:1
T: The Bridge of Newe
C:Alexander Walker
R:Strathspey
Q: 128
K:Em
M:4/4
L:1/16
|:Be3 e3f g3f e4|B3d A3B Fd3 F3D|Be3 e3f g3e f3d|B3A d3F EEE2 E4|
Be3 e3f g3f e4|B3d A3B Fd3 F3D|Be3 e3f g3e f3d|B3A d3F EEE2 E2e2|
B3E G3E B3E G4|A3D F3D d3A F4|G3E B,3E G3A B3c|d3B A3F EEE2 E3e|
B,3E G3E B3E G4|A,3D F3D A3D F3D|B,3E D3F E3G F3e|d3B A3F EEE2 E4:|
